X:12405
T:On dit qui a quinze ans. HSJJ.048
M:6/8
L:1/8
S:HSJ Jackson,Wyresdale,Lancs.1823
R:Jig
O:England
A:Lancashire
N:Maybe the law has changed,or was it always so in FranceAnyway,that's
N:what she said and my client saw no reason to doubt her, your honour.
H:1823
Z:vmp.Chris Partington.
K:D
d2fe2f|d2ed2c|B2AB2c|d3A3|d2fe2f|!
d2ed2c|B2AB2c|d3d3:||:f2f fef|g3g2e|!
fga agf|f3e3|f2f fef|g3g2e|fga agf|f3e3:|]
